X:1
T: Carrots in the Bathtub
L:1/8
C: Dan Foster
Z: Malcolm's Bothy
M:6/8
K:Amix
EAA BAA | eAA cde | gfe d=cB | ABG AFD |
EAA BAA | eAA ^cde | ~g3 dBG | EFG A2 G :|
|: ~E3 EFD | EFA cAF | ~E3 EFD | G,A,B, DGF |
~E3 EFD | EFA cAG | ~B3 AGE |1 DEG A2 G :|2 DEG A2 e|
|: ~a3 agf | ~g2 e fdB | ecA dBG | Bde gfe |
~a3 agf | ~g2 e fdB | ~g3 dBG | EFG A2 G :|
